Hatter-kde-dark/actions/24/go-previous-context.svg

<svg xmlns="http://www.w3.org/2000/svg" viewBox="0 0 24 24">
  <defs id="defs3051">
    <style type="text/css" id="current-color-scheme">
      .ColorScheme-Text {
        color:#dedede;
      }
      </style>
  </defs>
 <path style="fill:currentColor;fill-opacity:1;stroke:none" 
     d="M 7 4 L 3 12 L 7 20 L 21 20 L 21 4 L 7 4 z M 12.435547 8 L 12.435547 8.5917969 C 11.724827 8.5917969 11.707031 8.8309556 11.707031 9.6972656 L 11.707031 10.714844 C 11.707031 11.130314 11.583415 11.747556 10.984375 12.003906 C 11.583415 12.260256 11.707031 12.879462 11.707031 13.294922 L 11.707031 14.302734 C 11.707031 15.169044 11.724727 15.408203 12.435547 15.408203 L 12.435547 16 C 11.369447 16 10.914073 15.647754 10.914062 14.746094 L 10.914062 13.523438 C 10.914063 12.966527 10.873662 12.322266 10.294922 12.322266 L 10 12.322266 L 10 11.677734 L 10.294922 11.677734 C 10.873662 11.677734 10.914072 11.033473 10.914062 10.476562 L 10.914062 9.2539062 C 10.914063 8.3522462 11.369447 8 12.435547 8 z M 15.572266 8 C 16.638356 8 17.085938 8.3522462 17.085938 9.2539062 L 17.085938 10.476562 C 17.085938 11.033472 17.106442 11.677734 17.695312 11.677734 L 18 11.677734 L 18 12.322266 L 17.695312 12.322266 C 17.106442 12.322266 17.085938 12.966527 17.085938 13.523438 L 17.085938 14.746094 C 17.085937 15.647754 16.638356 16 15.572266 16 L 15.572266 15.408203 C 16.291966 15.408203 16.292969 15.169044 16.292969 14.302734 L 16.292969 13.294922 C 16.292969 12.879462 16.416585 12.260256 17.015625 12.003906 C 16.416585 11.747556 16.292969 11.130314 16.292969 10.714844 L 16.292969 9.6972656 C 16.292969 8.8309556 16.282966 8.5917969 15.572266 8.5917969 L 15.572266 8 z "
     class="ColorScheme-Text"
     />
</svg>

<?xml version="1.0" encoding="UTF-8"?>
<svg viewBox="0 0 24 24" xmlns="http://www.w3.org/2000/svg">
 <defs id="defs3051">
  <style id="current-color-scheme" type="text/css">.ColorScheme-Text {
        color:#dedede;
      }</style>
 </defs>
 <path class="ColorScheme-Text" d="m7 4-4 8 4 8h14v-16h-14zm5.4355 4v0.5918c-0.71072 0-0.72852 0.23916-0.72852 1.1055v1.0176c0 0.41547-0.12362 1.0327-0.72266 1.2891 0.59904 0.25635 0.72266 0.87556 0.72266 1.291v1.0078c0 0.86631 0.017696 1.1055 0.72852 1.1055v0.5918c-1.0661 0-1.5215-0.35225-1.5215-1.2539v-1.2227c1e-6 -0.55691-0.0404-1.2012-0.61914-1.2012h-0.29492v-0.64453h0.29492c0.57874 0 0.61915-0.64426 0.61914-1.2012v-1.2227c1e-6 -0.90166 0.45538-1.2539 1.5215-1.2539zm3.1367 0c1.0661 0 1.5137 0.35225 1.5137 1.2539v1.2227c0 0.55691 0.020504 1.2012 0.60937 1.2012h0.30469v0.64453h-0.30469c-0.58887 0-0.60937 0.64426-0.60937 1.2012v1.2227c-1e-6 0.90166-0.44758 1.2539-1.5137 1.2539v-0.5918c0.7197 0 0.7207-0.23916 0.7207-1.1055v-1.0078c0-0.41546 0.12362-1.0347 0.72266-1.291-0.59904-0.25635-0.72266-0.87359-0.72266-1.2891v-1.0176c0-0.86631-0.010003-1.1055-0.7207-1.1055v-0.5918z" fill="currentColor"/>
</svg>
